src/svg/pi-outline.svg

<svg version="1.2" baseProfile="tiny" xmlns="http://www.w3.org/2000/svg" width="24" height="24" viewBox="0 0 24 24"><path d="M20.121 7.121c-.566-.567-1.32-.879-2.121-.879s-1.555.312-2.121.879c-.233.233-.546.362-.879.362s-.646-.129-.879-.362c-1.366-1.366-3.185-2.118-5.121-2.118s-3.755.752-5.121 2.118c-.567.567-.879 1.32-.879 2.121s.312 1.555.879 2.121c.566.567 1.32.879 2.121.879v4.758c0 1.654 1.346 3 3 3s3-1.346 3-3c0 1.654 1.346 3 3 3s3-1.346 3-3v-4.166c.784-.356 1.501-.851 2.12-1.47.568-.567.88-1.321.88-2.122s-.312-1.554-.879-2.121zm-1.414 2.828c-.768.767-1.715 1.245-2.707 1.437v5.614c0 .553-.447 1-1 1s-1-.447-1-1v-5.614c-.992-.191-1.939-.67-2.707-1.437-.374-.374-.821-.623-1.293-.775v7.826c0 .553-.447 1-1 1s-1-.447-1-1v-7.827c-.473.152-.919.402-1.293.776-.195.196-.451.293-.707.293s-.512-.098-.707-.293c-.391-.391-.391-1.023 0-1.414 1.021-1.021 2.364-1.532 3.707-1.532s2.685.511 3.707 1.532c.633.632 1.463.948 2.293.948.831 0 1.661-.316 2.293-.948.195-.195.451-.293.707-.293s.512.098.707.293c.391.391.391 1.024 0 1.414z"/></svg>

<?xml version="1.0" encoding="iso-8859-1"?>
<!-- Generator: Adobe Illustrator 16.2.1, SVG Export Plug-In . SVG Version: 6.00 Build 0)  -->
<svg version="1.2" baseProfile="tiny" xmlns="http://www.w3.org/2000/svg" xmlns:xlink="http://www.w3.org/1999/xlink" x="0px"
	 y="0px" width="24px" height="24px" viewBox="0 0 24 24" xml:space="preserve">
<g id="Layer_1">
	<path d="M20.121,7.121C19.555,6.554,18.801,6.242,18,6.242s-1.555,0.312-2.121,0.879C15.646,7.354,15.333,7.483,15,7.483
		s-0.646-0.129-0.879-0.362C12.755,5.755,10.936,5.003,9,5.003S5.245,5.755,3.879,7.121C3.312,7.688,3,8.441,3,9.242
		s0.312,1.555,0.879,2.121C4.445,11.93,5.199,12.242,6,12.242V17c0,1.654,1.346,3,3,3s3-1.346,3-3c0,1.654,1.346,3,3,3s3-1.346,3-3
		v-4.166c0.784-0.356,1.501-0.851,2.12-1.47C20.688,10.797,21,10.043,21,9.242S20.688,7.688,20.121,7.121z M18.707,9.949
		c-0.768,0.767-1.715,1.245-2.707,1.437V17c0,0.553-0.447,1-1,1s-1-0.447-1-1v-5.614c-0.992-0.191-1.939-0.67-2.707-1.437
		C10.919,9.575,10.472,9.326,10,9.174V17c0,0.553-0.447,1-1,1s-1-0.447-1-1V9.173C7.527,9.325,7.081,9.575,6.707,9.949
		C6.512,10.145,6.256,10.242,6,10.242s-0.512-0.098-0.707-0.293c-0.391-0.391-0.391-1.023,0-1.414C6.314,7.514,7.657,7.003,9,7.003
		s2.685,0.511,3.707,1.532C13.34,9.167,14.17,9.483,15,9.483c0.831,0,1.661-0.316,2.293-0.948C17.488,8.34,17.744,8.242,18,8.242
		s0.512,0.098,0.707,0.293C19.098,8.926,19.098,9.559,18.707,9.949z"/>
</g>
<g id="nyt_x5F_exporter_x5F_info" display="none">
</g>
</svg>
